X:1
T:D minor Oliver Holden, 1800
T:Anna Barbauld, 1792 77. 77.
T:Weary Pilgrim No copyright. Transcribed from Plain Psalmody, 1800.
%%score [ 1 2 3 4 ]
L:1/8
M:6/8
K:F
V:1 treble nm="Treble" snm="Tr."
V:2 treble nm="Counter" snm="C."
V:3 treble-8 nm="Tenor" snm="T."
V:4 bass nm="Bass" snm="B."
V:1
 A2 A | B2 A GFG | F3 d2 e | A2 F D2 D | !fermata!D3 c2 d | B2 A G2 G | G3 Ad^c | d2 f A2 ^c | %8
 d3 |] %9
V:2
 D2 F | F2 F E2 E | F3 F2 E | D2 D D2 D | !fermata!D3 F2 F | E2 F E2 E | E3 F2 E | F2 A F2 E | %8
w: 1.~Come, said|Je- sus' sac- red|voice, Come and|make my paths your|choice; I will|guide you to your|home; Wea- ry|pil- grim, hith- er|
 D3 |] %9
w: come.|
V:3
 d2 d | d2 d c2 c | c3 F2 A | f2 d A2 A | !fermata!A3 A2 A | B2 c c2 c | c3 dAA | A2 d d2 A | A3 |] %9
V:4
 D,2 D, | D,2 F, C,2 C, | F,3 D,2 A,, | D,2 D, D,2 D, | !fermata!D,3 A,2 A, | G,2 F, C,2 C, | %6
 C,3 F,2 A, | D,2 D, A,2 A,, | D,3 |] %9

